X:136
%%pagewidth 8.5in
%%vocalfont Baskerville10Pro 13
T:There was an old fellow at Waltham Cross
M:6/8
L:1/8
K:Bb
%%score 1 2
V:1 clef-treble
V:2 clef-bass octave=-1
V:1
[CGc]|A>GF F>GF&[CF]x2x3|[CFA]2B [Fc]2[DAd]|B>AG F>AG&[DG]x2x3|
w:There was an old fel-low at Walth-am Cross, Who mer-ri-ly sung when he 
V:2
E|F6|F3A2F|G6|
V:1
[DB]2c [Gd]2[Gc]|c>dc (c>d)c&Ax2Fx2|c>de x2A&B3[Af]2x|
w:liv'd~by the loss, He ne-ver was heard* to sigh with hey-ho!~But 
V:2
G3B2E|F3A3|G3F3|
V:1
(B>c)B B>AG&F3C3|[CA]A B [Fc]2[Fc]|(F>G)F [EA]2[EA]|
w:sent* it out with a heigh trolly-*lo! He cheer'd up~his heart when his 
V:2
D3E3|F3A3|d3c3|
V:1
(G>A)G [EB]2[EB]&Dx2x3|(A>c)F [FB]2[EA]&Fx2x3|GF[CE][A,F]2&D2xx2||
w:goods went to wrack, With~a hem,* boys, hem, And~a cup of old sack.
V:2
B3G3|F2E D2C|B,2CF2||

